X:341
T:Stowe Quickstep, The
R:jig 32
S:John Mason
M:6/8
L:1/8
Q:1/8=140
K:D
|:ABA ABA|A2d f2f|fed cde|d2f A2z/A/|
ABA ABA|A2d f2f|agf edc|d3 d3:||!
K:A
|:efe efe|e2a c2c|B2B BcB|A2c e2e|
efe efe|e2a c2c|B2B BcB|1A3 A3:|2A3 F2G|]

